X: 23108
T: Laurel Tree, The
R: reel
M: 4/4
K: Adorian
|:eaag egdc|BAGA Bcdg|eaag egdc|BAGA A2 (3Bcd|
eaag egdc|BAGA Bcd2|~e3f gaaf|gedB A2 (3Bcd:|
|:eaag egdc|BAGA Bcdg|eaag a2ga|bagb ~a3g|
eaag egdc|BAGA Bcd2|~e3f gaaf|gedB A2 (3Bcd:|

